shader_type canvas_item;

// Plot a line on Y using a value between 0.0-1.0
float plot(vec2 st, float pct){
  return  smoothstep( pct-0.02, pct, st.y) -
          smoothstep( pct, pct+0.02, st.y);
}

void fragment() {
	vec2 st = FRAGCOORD.xy/(1.0/SCREEN_PIXEL_SIZE);

    float y = st.x;

    vec3 color = vec3(y);

    // Plot a line
    float pct = plot(st,y);
    color = (1.0-pct)*color+pct*vec3(0.0,1.0,0.0);

	COLOR = vec4(color,1.0);
}
